X:1
T:Good-Bye
T:Good-Bye
T:George Crawford Hugg
T:Johnson Oatman, Jr., 1898
T:Public Domain Courtesy of the Cyber Hymnal™
C:George Crawford Hugg
Z:Public Domain
Z:Courtesy of the Cyber Hymnal™
%%score ( 1 2 ) ( 3 4 )
L:1/8
Q:1/4=88
M:3/4
K:Ab
V:1 treble 
V:2 treble 
V:3 bass 
V:4 bass 
V:1
 E | [Ec]>[Ec] [Ec]3 [EA] | [DA]>[DF] [DA]3 [FA] | [EG]>[EA] [EB]3 [EB] | [EA]>[EB] [Ec]3 E | %5
w: 1.~These|scenes so bright, now|take their flight As|birds in sum- mer|seem to fly; A-|
w: 2.~As|oft we meet, and|dear ones greet, Heart|speaks to heart and|eye to eye; Time|
w: 3.~Some-|time we’ll meet, some-|time we’ll greet Each|o- ther in that|land on high; There|
 [Ac]>[Ac] [Ae]3 [Ac] | [FB]>[DF] [DB]3 [CA] | !fermata![EA][EG] [Gc]3 [GB] | A4- A || %9
w: gain we stand with|part- ing hand, Good-|bye, good- bye, good-|bye. *|
w: speeds a- way, and|soon we say, Good-|bye, good- bye, good-|bye. *|
w: we will stay, and|ne- ver say, Good-|bye, good- bye, good-|bye. *|
"^Refrain" [Ac] | [Bd]>[=Ac] [Bd]3 [Bd] | [Ac]>[A=B] [Ac]3 [Ac] | [Ae]>[A=d] [Ae]3 [EA] | %13
w: ||||
w: Good-|bye, good- bye, we|breathe a sigh, We|say fare- well with|
w: ||||
 [Ac]>[GB] [GB]3 E | [Ac]>[Ac] [Ae]3 [Ac] | [FB]>[DF] [DB]3 [CA] | !fermata![EA][EG] [Gc]3 [GB] | %17
w: ||||
w: tear dimmed eye; God|bless you all, God|keep you all, Good-|bye, good- bye, good-|
w: ||||
 A4- A |] %18
w: |
w: bye. *|
w: |
V:2
 E | x6 | x6 | x6 | x5 E | x6 | x6 | x6 | A4- A || x | x6 | x6 | x6 | x5 E | x6 | x6 | x6 | %17
 A4- A |] %18
V:3
 E, | [A,,A,]>[A,,A,] [A,,A,]3 [C,A,] | [D,F,]>[D,A,] [D,F,]3 [D,F,] | %3
 [E,B,]>[E,A,] [E,G,]3 [D,G,] | [C,A,]>[B,,G,] [A,,A,]3 A, | [A,E]>[A,E] [A,C]3 [A,E] | %6
 [D,D]>[D,A,] [D,F,]3 [E,A,] | !fermata![E,C][E,B,] [E,E]3 [E,D] | [A,C]4- [A,C] || [A,E] | %10
 [E,E]>[E,E] [E,E]3 [E,E] | [A,E]>[A,=D] [A,E]3 [A,E] | [A,C]>[A,=B,] [A,C]3 [A,C] | %13
 [E,E]>[E,E] [E,E]3 [A,C] | [A,E]>[A,E] [A,C]3 [A,E] | [D,D]>[D,A,] [D,F,]3 [E,A,] | %16
 !fermata![E,C][E,B,] [E,E]3 [E,D] | [A,C]4- [A,C] |] %18
V:4
 E, | x6 | x6 | x6 | x5 A, | x6 | x6 | x6 | x5 || x | x6 | x6 | x6 | x6 | x6 | x6 | x6 | x5 |] %18

